X: 125
T: Ni qishang louzi wo qishang ma
L: 1/16
M: 2/4
K: F
c2 f2 c2 B c [I:setbarnb 1]| 
G c F D2< C2 F | 
A G F D C2 F G | 
c6B c | 
A G F D C2 F G | 
c2 B c G A F D | 
C2 C F A G F D | 
C8 |]

@@@ Tune index: 8999
